X:1
T:Title
%%score 1 2 3
L:1/8
M:2/2
K:F
V:1 treble nm="Part_1"
V:2 bass nm="Part_2"
V:3 bass nm="Part_3"
V:1
 F2 A2 cc/c/cB/c/ |[M:3/2] d3 d c4 z4 |[M:4/2] F2 A2 cc/c/cB/c/ d3 d c2 z c/B/ | %3
w: Ec- ce nunc Be- ne- di- ci- te|Do- mi- num|ec- ce nunc be- ne- di- ci- te Do- mi- num Be- ne-|
[M:2/2] A>G F/EE/ D^F/F<GF/ | E2 z =B/B/ c>B A2 | z ^F/F/ G3 =F/E<DD/ | Cc/c/ c3 B/A<GG/ | F4 z4 | %8
w: di- ci- te Do- mi- num Be- ne- di- ci-|te Be- ne- di- ci- te|Be- ne- di- ci- te Do- mi-|num Be- ne- di- ci- te Do- mi-|um|
 z8 | z4 z B/c/ d2- | dc/B<cc/ B4 | z8 | (6:2:4B8 G4 A8 F4 | (6:2:3G8 E4 F12 | (6:2:4c8 c4 B8 A4 | %15
w: |Be- ne- di-|* ci- te Do- mi- num||Om- nes ser- vi-|Do- mi- ni|om- nes ser- vi|
[M:2/4] (6:2:2G8 G4 |[M:4/2] F4 c2 A2 d>A G2 c2 A2 |[M:2/2] d/c/d/B/A/B/c/d/ c2 B2 | %18
w: Do- mi-|ni qui- a Do- mi- nus por- tas|coe- * * * * * * * * li|
 z4 F/G/A/B/cA | G/A/B/c/d c/B/ c2 d2 | z FG>G AA=B>B | c2 A/=B/c/A/ B c2 B | c2 z2 z4 | z4 z cdB | %24
w: por- * * * * tas|coe- * * * * * * * li|ap- pe- ru- it ap- pe- ru-|it no- * * * * * *|is|et plu- it|
 cc/A/BG AA/F/GE |[M:3/2] F B2 A B2 c3 _A G2 | G/A/B/c/dc/B/ A/c/B/A/ G2 F2 z/ E/F/G/ | %27
w: an- na et plu- it man- na et plu- it|man- * * na ut e- da-|mus Al- le- lu- ia * * lu- ia Al- le- lu- ia Al- le- lu-|
[M:2/2] AG/F/ E/G/F/E/ D2 Cc/B/ | A/B/G/A/ ^F/GF/ GG/=F/ E/F/G/_A/ | G2 F2 z2 z G/F/ | %30
w: ia Al- le- lu- ia Al- le- lu- ia Al- le-|lu- ia Al- le- lu\-- * * ia Al- le- lu- ia Al- le-|lu- ia Al- le-|
[M:4/8] E/G/A/=B/cB |[M:2/2] z4 z/ G/A/B/ c2 | z/ A/B/c/dc/B/ A/c/B/A/ G2 |[M:4/2] F4 z4 F4 G2 G2 | %34
w: lu- ia Al- le- lu- ia|Al- le- lu- ia|Al- le- lu- ia Al- le- lu- ia Al- le- lu-|ia e- du- xit|
[M:3/2] A3 A B2 d3 c/B/ A2 |[M:4/8] G2 z2 |[M:2/2] z/ G/E/F/ G/_A/G F4 | %37
w: Do- mi- nus po- pu- lum su-|um|In e- xul- ta- ti- o- ne|
[M:3/2] z/ c/A/B/ c/d/c B4 z d>cB/A/ |[M:2/2] B/B/d/A/cd/>G/ A4 |[M:4/8] z4 | %40
w: In e- xul- ta- ti- o- ne Et e- lec- tos|su- os in Iæ- ti- * ti- a||
[M:3/2] z2 c3 FG>G A4 |[M:4/2] z2 A2 c4 A2 A4 d2 | ^c d2 c d4 =B2 =c2 A4 |[M:2/2] GGc>B A4 | %44
w: In læ- ti- ti- a|ve- ni- te Be- ne-|dic- * * ti Pa- tris me-|i per- ci- pi- te|
[M:3/2] G/A/G/A/B/c/B/c/d/c/d/B/ c2 d4 | z F>GA/B/ c2 c3 B/A/ G2 |[M:2/2] FF>GA/B/ c4 | %47
w: re- * * * * * * * * * * * * gnum|Quod pa- ra- tum est vo- * * *|bis Quod pa- ra- tum est|
[M:3/2] =B c2 B c8 |[M:2/2] z B/A/GG z A/G/FF | z G/F/EE z F/E/DD |[M:4/2] z2 EF E/C/ F2 E F8 |] %51
w: vo- * * bis|Al- lelu- * ia Al- le- lu- ia|Al- le- lu- ia Al- le- lu- ia|Al- le- lu- * * * ia|
V:2
 z8 |[M:3/2] z4 F,,2 A,,2 C,C,/C,/C,B,,/C,/ |[M:4/2] D,3 D, C,4 z8 |[M:2/2] z4 D,2 =B,,2 | %4
w: |Ec- ce nunc Be- ne- di- ci- te|Do- mi- num|Se- ce|
 C,E,/F,<G,D,/ E,2 F,>E, | D,D,/D,/C,B,,/A,,/ G,,3 G,, | C,C,/C,/F,E,/D,/ C,3 C, | %7
w: nunc Be- ne- di- ci- te Do- mi-|num Be- ne- di- ci- te Do- mi-|num Be- ne- di- ci- te Do- mi-|
 F,,F,/F,/ F,3 E,/D,/ C,/D,/C,/B,,/ | A,,/B,,/A,,/G,,/F,,/G,,/A,,/F,,/ G,,>G,,C,B,,/C,/ | %9
w: num Be- ne- di- ci- te Do- * * *|* * * * * * * * * mi- num Be- ne-|
 D,3 C,/C,/ B,,3 A,,/G,,/ | F,,2 F,,2 B,,4 | (6:2:4B,8 G,4 A,8 F,4 | (6:2:3G,8 E,4 F,12 | %13
w: di- ci- te Do\-- * *|* mi- num|om- nes ser- vi|Do- mi- ni|
 (6:2:4_E,8 C,4 D,8 B,,4 | (6:2:4C,8 A,,4 B,,8 F,,4 |[M:2/4] (6:2:2C,8 C,4 | %16
w: om- nes ser- vi|om- nes ser- vi|Do- mi-|
[M:4/2] F,,8 z2 C,2 A,,2 D,>A,, |[M:2/2] G,,2 F,,/G,,/A,,/B,,/ C,A,, G,,/A,,/B,,/C,/ | %18
w: ni Qui- a Do- mi-|nus por- * * * * tas coe- * * *|
 D, F,2 E, F,4 | z4 z F,B,>B, | F,F,E,>E, F,F,G,>G, | C,2 F,/G,/A,/F,/ G,2 G,,2 | %22
w: * * * li|a- pe- ru-|it a- pe- ru- ut a- pe- ru-|it no- * * * * *|
 C,C,D,B,, C,C,/A,,/B,,G,, | A,,/B,,/C,/D,/E,/F,/G,/E,/ F,2 B,,2 | z F,G,E, F,F,/D,/_E,C, | %25
w: bis et plu- it man- na et plu- it|* * * * * * * * * na|et plu- it man- na et plu- it|
[M:3/2] D,>E, F,2 B,,2 F,3 F, C,2 | F,,2 z2 z2 z/ C,/D,/E,/ F,/F,,/A,,/B,,/ C,2 | %27
w: man- * * na ut e- da-|mus Al- le- lu- ia Al- le- lu- ia|
[M:2/2] z _E,/D,/C,C, z/ G,,/A,,/=B,,/ C,2 | F,C, D,2 G,,2 z2 | %29
w: Al- le- lu- ia Al- le- lu- ia|Al- le- lu- ia|
 z/ C,/D,/E,/F,E,/D,/ C,/C,/B,,/A,,/ G,,2 |[M:4/8] C,/E,/F,/G,/A,G,/F,/ | %31
w: Al- le- lu- ia Al- le- lu- ia Al- le- lu-|ia Al- le- lu- ia Al- le-|
[M:2/2] E,/G,/F,/E,/ D,2 C,2 z/ C,/D,/E,/ | F,2 z A,/G,/ F,/F,/B,,/F,/ C,2 | %33
w: lu- ia Al- le- lu- ia Al- le- lu-|ia Al- le- lu- ia Al- le- lu-|
[M:4/2] F,,4 C,4 D,2 D,2 E,3 E, |[M:3/2] F,4 G,3 F,/E,/ D,4 |[M:4/8] G,,/G,/E,/F,/G,/_A,/G, | %36
w: ia E- du- xit Do- mi-|nus po- pu- lum su-|um in e- xul- ta ti- o-|
[M:2/2] C,4 z/ F,/D,/E,/ F,/D,/C, |[M:3/2] F,,4 z B,,>C,D,/E,/ F,2 B,,2 |[M:2/2] z4 z F,>E,D,/C,/ | %39
w: ne In e- xul- ta- ti- o-|ne et e- lec- tos su- os|et e- lec- tos|
[M:4/8] D,/D,/F,/C,/E,F,/>C,/ |[M:3/2] F,,2 F,3 D,C,>C, F,,4 |[M:4/2] z2 F,2 E,4 F,2 F,4 D,2 | %42
w: su- os in læ- ti- * ti-|a in læ- ti- ti- a|Ve- ni- te be- ne-|
 A,4 D,4 G,2 E,2 F,4 |[M:2/2] C,2 z C, F,>E, D,2 | %44
w: dic- ti Pa- tris me-|i per- ci- pi- te|
[M:3/2] E,/F,/E,/F,/G,/F,/G,/A,/B,/A,/B,/G,/ F,2 B,,B,,>C,D,/E,/ | F,4 F,3 E,/D,/ C,4 | %46
w: Re- * * * * * * * * * * * * gnum quod pa- ra- tum|est vo- * * *|
[M:2/2] F,,4 z C,>D,E,/F,/ |[M:3/2] G,4 C,4 F,2 z F,/E,/ |[M:2/2] D,D, z _E,/D,/ C,C, z D,/C,/ | %49
w: bis quod pa- ra- tum|est vo- bis Al- le-|lu- ia Al- le- lu- ia Al- le-|
 =B,,B,, z C,/_B,,/ A,,A,, z B,,/A,,/ |[M:4/2] G,,F,,C,D, C,4 F,,8 |] %51
w: lu- ia Al- le- lu- ia Al- le-|lu- ia Al- le- lu- ia|
V:3
 F,,2 F,,2 F,F,/F,/F,B,,/A,,/ |[M:3/2] B,,3 B,, F,,2 A,,2 C,C,/C,/C,B,,/C,/ | %2
[M:4/2] D,3 D, C,4 B,,3 B,, F,,4 |[M:2/2] F,C,/D,/ A,,2 D,2 =B,,2 | C,2 G,,2 C,2 F,>E, | %5
 D,D,/D,/C,B,,/A,,/ G,,4 | C,2 F,E,/D,/ C,4 | F,,F,/F,/ F,3 E,/D,/C,/D,/C,/B,,/ | %8
 A,,/B,,/A,,/G,,/ F,,2 G,,>G,,C,B,,/C,/ | D,3 C,/C,/ B,,3 A,,/G,,/ | F,,4 B,,4 | %11
 (6:2:4B,8 G,4 A,8 F,4 | (6:2:3G,8 E,4 F,12 | (6:2:4_E,8 C,4 D,8 B,,4 | (6:2:4C,8 A,,4 B,,8 F,,4 | %15
[M:2/4] (6:2:2C,8 C,4 |[M:4/2] F,,8 B,,>F, C,2 A,,2 D,>A,, |[M:2/2] G,,2 F,,2 C,A,, G,,2 | %18
 D, F,2 E, F,3 F,, | G,,>A,, B,,2 F,,F,B,>B, | F,F,E,>E,F,F,G,>G, | C,2 F,2 G,4 | %22
 C,C,D,B,, C,C,/A,,/B,,G,, | A,,2 E,2 F,2 B,,2 | F,F,G,E,F,F,/D,/_E,C, | %25
[M:3/2] D,>E, F,2 B,,2 F,3 F, C,2 | F,,2 B,,2 F,,2 C,2 F,,2 C,2 |[M:2/2] F,_E,/D,/C,C, G,,2 C,2 | %28
 F,C, D,2 G,,2 C,2 | C,2 F,E,/D,/C,/C,/B,,/A,,/ G,,2 |[M:4/8] C,/E,/F,/G,/A,G,/F,/ | %31
[M:2/2] E,2 D,2 C,2 C,2 | F,2 B,A,/G,/F,/F,/B,,/F,/ C,2 |[M:4/2] F,,4 C,4 D,2 D,2 E,3 E, | %34
[M:3/2] F,4 G,3 F,/E,/ D,4 |[M:4/8] G,,/G,/E,/F,/G,/_A,/G, |[M:2/2] C,4 F,/F,/D,/E,/F,/D,/C, | %37
[M:3/2] F,,4 B,,4 F,,F,, B,,2 |[M:2/2] B,,>F,, C,2 F,F,>E,D,/C,/ |[M:4/8] D,/D,/F,/C,/E,F,/>C,/ | %40
[M:3/2] F,,2 F,3 D, C,2 F,,4 |[M:4/2] z2 F,2 E,4 F,2 F,4 D,2 | A,,4 D,4 G,2 E,2 F,4 | %43
[M:2/2] C,3 C, F,>E, D,2 |[M:3/2] E,/F,/E,/F,/G,/F,/G,/A,/B,/A,/B,/G,/ F,2 B,,4 | %45
 F,4 F,3 E,/D,/ C,4 |[M:2/2] F,,4 C,C,>D,E,/F,/ |[M:3/2] G,4 C,4 F,3 F,/E,/ | %48
[M:2/2] D,D,_E,E,/D,/C,C,D,D,/C,/ | =B,, B,,C,C,/_B,,/A,,A,,B,,B,,/A,,/ | %50
[M:4/2] G,,F,,C,D, C,4 F,,8 |] %51

